MA4T1/111/aimg/naranja-h.svg

<svg clip-rule="evenodd" fill-rule="evenodd" stroke-linejoin="round" stroke-miterlimit="2" viewBox="0 0 180 40" xmlns="http://www.w3.org/2000/svg"><g fill-rule="nonzero"><path d="m0 .846c.517.244.93.461 1.36.636.349.141.527-.053.541-.393.009-.195-.016-.395-.06-.586-.176-.773-.343-.831-1.017-.344-.252.181-.478.396-.824.687m4.286-3.245c-.656.432-1.214.794-1.765 1.166-.347.234-.369.506-.232.921.193.591.269 1.228.342 1.851.081.7.316.951 1.057.997.69.044.916-.114 1.013-.857.171-1.308.195-2.612-.415-4.078m1.045 4.864c2.082.146 4.061.349 6.044.407 2.347.069 4.708-.119 7.046.042 3.621.25 7.241.15 10.86.224 1.047.022 1.44-.314 1.312-1.346-.122-.981-.398-1.947-.666-2.903-.191-.677-.694-1.056-1.411-1.102-1.111-.073-2.223-.178-3.336-.196-1.553-.024-3.107.01-4.66.035-4.62.075-9.239.158-13.859.24-.279.004-.557.036-.835.037-.445.001-.563.252-.466.626.331 1.265.133 2.529-.029 3.936m-2.543.735c-1.13-.643-2.275-1.262-3.383-1.941-.47-.288-.487-.519-.104-.821 1.247-.983 2.506-1.954 3.802-2.871.331-.235.815-.346 1.231-.352 3.386-.049 6.772-.059 10.158-.082.2-.002.399-.011.598-.016 3.225-.092 6.45-.213 9.675-.261 1.351-.02 2.704.107 4.055.185.597.034 1.088.333 1.372.843.308.551.593 1.137.757 1.743.208.766.313 1.565.407 2.356.117.977-.341 1.61-1.318 1.803-.463.092-.951.078-1.427.08-1.952.008-3.915.144-5.852-.024-4.179-.363-8.363-.043-12.54-.247-2.146-.105-4.292-.203-6.437-.317-.316-.016-.627-.104-.94-.16z" fill="#231f20" transform="matrix(5.55556 0 0 5.55556 5.3721822 17.4929302)"/><path d="m0 4.199c.162-1.407.36-2.671.029-3.937-.097-.374.021-.625.466-.625.278-.001.556-.033.835-.038 4.62-.081 9.239-.164 13.858-.239 1.554-.025 3.108-.059 4.661-.035 1.113.018 2.225.123 3.336.196.717.046 1.22.425 1.411 1.102.268.955.544 1.922.666 2.903.128 1.032-.265 1.368-1.312 1.346-3.619-.074-7.24.026-10.86-.224-2.339-.161-4.699.027-7.046-.042-1.983-.058-3.962-.261-6.044-.407" fill="#fbb040" transform="matrix(5.55556 0 0 5.55556 34.99442812 7.85958916)"/><path d="m0-4.979c.611 1.466.586 2.77.416 4.078-.097.743-.324.901-1.014.858-.74-.047-.975-.298-1.057-.998-.073-.623-.148-1.26-.342-1.851-.136-.415-.115-.687.232-.921.552-.372 1.11-.734 1.765-1.166" fill="#ffe5a6" transform="matrix(5.55556 0 0 5.55556 29.18331236 31.826275)"/><path d="m0 .397c.346-.291.572-.506.824-.687.674-.487.841-.429 1.017.344.044.191.069.391.06.586-.014.34-.192.534-.541.393-.43-.175-.843-.392-1.36-.636" fill="#fbb040" transform="matrix(5.55556 0 0 5.55556 5.3721822 19.98737664)"/><path d="m0 2.862c-3.265-.134-6.515-.636-9.667-1.494.419.149.881.082 1.322.014 2.014-.314 4.034-.603 6.045-.942.687-.116 1.321-.44 1.876.087.221.209.447 2.335.424 2.335" fill="#fff" transform="matrix(5.55556 0 0 5.55556 170.97787024 17.24848556)"/></g></svg>

<?xml version="1.0" encoding="UTF-8" standalone="no"?>
<!DOCTYPE svg PUBLIC "-//W3C//DTD SVG 1.1//EN" "http://www.w3.org/Graphics/SVG/1.1/DTD/svg11.dtd">
<svg width="100%" height="100%" viewBox="0 0 180 40" version="1.1" xmlns="http://www.w3.org/2000/svg" xmlns:xlink="http://www.w3.org/1999/xlink" xml:space="preserve" xmlns:serif="http://www.serif.com/" style="fill-rule:evenodd;clip-rule:evenodd;stroke-linejoin:round;stroke-miterlimit:2;">
    <g transform="matrix(1,0,0,1,-8597.26,-11823.3)">
        <g transform="matrix(5.55556,0,0,5.55556,7263.77,9566.93)">
            <g transform="matrix(1,0,0,1,240.995,409.295)">
                <path d="M0,0.846C0.517,1.09 0.93,1.307 1.36,1.482C1.709,1.623 1.887,1.429 1.901,1.089C1.91,0.894 1.885,0.694 1.841,0.503C1.665,-0.27 1.498,-0.328 0.824,0.159C0.572,0.34 0.346,0.555 0,0.846M4.286,-2.399C3.63,-1.967 3.072,-1.605 2.521,-1.233C2.174,-0.999 2.152,-0.727 2.289,-0.312C2.482,0.279 2.558,0.916 2.631,1.539C2.712,2.239 2.947,2.49 3.688,2.536C4.378,2.58 4.604,2.422 4.701,1.679C4.872,0.371 4.896,-0.933 4.286,-2.399M5.331,2.465C7.413,2.611 9.392,2.814 11.375,2.872C13.722,2.941 16.083,2.753 18.421,2.914C22.042,3.164 25.662,3.064 29.281,3.138C30.328,3.16 30.721,2.824 30.593,1.792C30.471,0.811 30.195,-0.155 29.927,-1.111C29.736,-1.788 29.233,-2.167 28.516,-2.213C27.405,-2.286 26.293,-2.391 25.18,-2.409C23.627,-2.433 22.073,-2.399 20.52,-2.374C15.9,-2.299 11.281,-2.216 6.661,-2.134C6.382,-2.13 6.104,-2.098 5.826,-2.097C5.381,-2.096 5.263,-1.845 5.36,-1.471C5.691,-0.206 5.493,1.058 5.331,2.465M2.788,3.2C1.658,2.557 0.513,1.938 -0.595,1.259C-1.065,0.971 -1.082,0.74 -0.699,0.438C0.548,-0.545 1.807,-1.516 3.103,-2.433C3.434,-2.668 3.918,-2.779 4.334,-2.785C7.72,-2.834 11.106,-2.844 14.492,-2.867C14.692,-2.869 14.891,-2.878 15.09,-2.883C18.315,-2.975 21.54,-3.096 24.765,-3.144C26.116,-3.164 27.469,-3.037 28.82,-2.959C29.417,-2.925 29.908,-2.626 30.192,-2.116C30.5,-1.565 30.785,-0.979 30.949,-0.373C31.157,0.393 31.262,1.192 31.356,1.983C31.473,2.96 31.015,3.593 30.038,3.786C29.575,3.878 29.087,3.864 28.611,3.866C26.659,3.874 24.696,4.01 22.759,3.842C18.58,3.479 14.396,3.799 10.219,3.595C8.073,3.49 5.927,3.392 3.782,3.278C3.466,3.262 3.155,3.174 2.842,3.118L2.788,3.2Z" style="fill:rgb(35,31,32);fill-rule:nonzero;"/>
            </g>
        </g>
        <g transform="matrix(5.55556,0,0,5.55556,7263.77,9566.93)">
            <g transform="matrix(1,0,0,1,246.327,407.561)">
                <path d="M0,4.199C0.162,2.792 0.36,1.528 0.029,0.262C-0.068,-0.112 0.05,-0.363 0.495,-0.363C0.773,-0.364 1.051,-0.396 1.33,-0.401C5.95,-0.482 10.569,-0.565 15.188,-0.64C16.742,-0.665 18.296,-0.699 19.849,-0.675C20.962,-0.657 22.074,-0.552 23.185,-0.479C23.902,-0.433 24.405,-0.054 24.596,0.623C24.864,1.578 25.14,2.545 25.262,3.526C25.39,4.558 24.997,4.894 23.95,4.872C20.331,4.798 16.71,4.898 13.09,4.648C10.751,4.487 8.391,4.675 6.044,4.606C4.061,4.548 2.082,4.345 0,4.199" style="fill:rgb(251,176,64);fill-rule:nonzero;"/>
            </g>
        </g>
        <g transform="matrix(5.55556,0,0,5.55556,7263.77,9566.93)">
            <g transform="matrix(1,0,0,1,245.281,411.875)">
                <path d="M0,-4.979C0.611,-3.513 0.586,-2.209 0.416,-0.901C0.319,-0.158 0.092,0 -0.598,-0.043C-1.338,-0.09 -1.573,-0.341 -1.655,-1.041C-1.728,-1.664 -1.803,-2.301 -1.997,-2.892C-2.133,-3.307 -2.112,-3.579 -1.765,-3.813C-1.213,-4.185 -0.655,-4.547 0,-4.979" style="fill:rgb(255,229,166);fill-rule:nonzero;"/>
            </g>
        </g>
        <g transform="matrix(5.55556,0,0,5.55556,7263.77,9566.93)">
            <g transform="matrix(1,0,0,1,240.995,409.744)">
                <path d="M0,0.397C0.346,0.106 0.572,-0.109 0.824,-0.29C1.498,-0.777 1.665,-0.719 1.841,0.054C1.885,0.245 1.91,0.445 1.901,0.64C1.887,0.98 1.709,1.174 1.36,1.033C0.93,0.858 0.517,0.641 0,0.397" style="fill:rgb(251,176,64);fill-rule:nonzero;"/>
            </g>
        </g>
        <g transform="matrix(5.55556,0,0,5.55556,7263.77,9566.93)">
            <g transform="matrix(1,0,0,1,270.804,409.251)">
                <path d="M0,2.862C-3.265,2.728 -6.515,2.226 -9.667,1.368C-9.248,1.517 -8.786,1.45 -8.345,1.382C-6.331,1.068 -4.311,0.779 -2.3,0.44C-1.613,0.324 -0.979,0 -0.424,0.527C-0.203,0.736 0.023,2.862 0,2.862" style="fill:white;fill-rule:nonzero;"/>
            </g>
        </g>
    </g>
</svg>
